loleaflet/images/lc_insertpage.svg

<svg viewBox="0 0 24 24" xmlns="http://www.w3.org/2000/svg"><path d="m3 5.0000001v13.9999999h9c-1.090703 0-2-.909297-2-2s.909297-2 2-2h3v-3c0-1.090703.909297-2 2-2s2 .909297 2 2v3h2v-9.9999999z" fill="#fff"/><path d="m3 3.998047c-.554 0-1 .446-1 1v14c0 .554.446 1 1 1h10.109375 1.890625v-.998047h-3c-.0087 0-.01675-.0018-.02539-.002-.133741-.0018-.263895-.01719-.390625-.04492-.127447-.02789-.251529-.06773-.36914-.119141-.117972-.05156-.228682-.115051-.333985-.1875-.000413-.000284-.0015.000285-.002 0-.102791-.07066-.199009-.150351-.287109-.238281-.07075-.07062-.131632-.150204-.191406-.230469-.01801-.02421-.03971-.04531-.05664-.07031-.0126-.01858-.02122-.03959-.0332-.05859-.124675-.197994-.220553-.41588-.269531-.65039-.000131-.000627.00013-.0013 0-.002-.026645-.128371-.040974-.260896-.040974-.396399 0-1.090703.909297-2 2-2h3v-3c0-.181137.03326-.353688.08008-.521484.01023-.0366.02093-.07165.0332-.107422.05308-.155405.120997-.303135.208985-.439453.0055-.0085.008-.01889.01367-.02734.09318-.139708.208002-.262321.332031-.375.03184-.02888.06404-.05518.09766-.08203.123332-.09879.254547-.185972.398437-.253907.0064-.003.01112-.0088.01758-.01172l-.181643-.181644-5 4.59375-2-1.59375s-5.4975935 5.984359-5.9960938 5.998047h-.00391v-14h17.9999998v8.501953.498047h-1.001953l-.998043-.998047v.998047.002 1h2l-1-1h1v1h1v-1-.5-8.501953c0-.554-.446-1-1-1h-18zm16 15.001953v1h2.5c.06925 0 .135453-.01383.195312-.03906.179546-.075755.304688-.25319.304688-.46094v-.5z" fill="#808080"/><circle cx="7.5" cy="8.5" fill="#eac282" r="2.5"/><path d="m17 11c-.554 0-1 .446-1 1v4h-4c-.554 0-1 .446-1 1s.446 1 1 1h4v4c0 .554.446 1 1 1s1-.446 1-1v-4h4c.554 0 1-.446 1-1s-.446-1-1-1h-4v-4c0-.554-.446-1-1-1z" fill="#4d82b8"/></svg>

<svg xmlns="http://www.w3.org/2000/svg" viewBox="0 0 21 19"><path d="M3,5V19h9a2,2,0,0,1,0-4h3V12a2,2,0,0,1,4,0v3h2V5Z" transform="translate(-2 -4)" fill="#fff"/><path d="M21,14v1h1V5.12A1.12,1.12,0,0,0,20.88,4H3A1,1,0,0,0,2,5V18.88A1.12,1.12,0,0,0,3.12,20H15V19H12a1.74,1.74,0,0,1-.39-.05,1.33,1.33,0,0,1-.37-.12,2.68,2.68,0,0,1-.33-.18h0a2.17,2.17,0,0,1-.29-.24,2.11,2.11,0,0,1-.19-.23l-.06-.07,0-.06A2.18,2.18,0,0,1,10,17.4h0a2,2,0,0,1,.12-1.18,2.14,2.14,0,0,1,2-1.22h2.72a.12.12,0,0,0,.12-.12V12a1.82,1.82,0,0,1,.08-.52l0-.11a2.53,2.53,0,0,1,.21-.44l0,0a1.65,1.65,0,0,1,.33-.37.39.39,0,0,1,.1-.08,2,2,0,0,1,.39-.26h0L16,10l-4.92,4.52a.12.12,0,0,1-.16,0L9.09,13.07a.11.11,0,0,0-.16,0C8.27,13.8,3.47,19,3,19H3V5.12A.12.12,0,0,1,3.12,5H20.88a.12.12,0,0,1,.12.12V13.5M21,15m-2,4v1h2.5a.45.45,0,0,0,.2,0,.5.5,0,0,0,.3-.46V19Z" transform="translate(-2 -4)" fill="#696d72"/><circle cx="5.5" cy="4.5" r="2.5" fill="#eac282"/><path d="M17,11a1,1,0,0,0-1,1v4H12a1,1,0,0,0,0,2h4v4a1,1,0,0,0,2,0V18h4a1,1,0,0,0,0-2H18V12A1,1,0,0,0,17,11Z" transform="translate(-2 -4)" fill="#4d82b8"/></svg>
